T: Flowers Of Edinburgh, The
M: 4/4
L: 1/8
K: Gmaj
G2 GA B2 AB | cBAG E2 E2 | EFGE DEFG | AdBG E2 GE | D2 DE G2 GA | BGBd efge | dBAG EDEG | (3ABA G2 G2 :| g2 gf gbag | fefg a2 az | edef edBd | de-ed e2 ge |dBGB d3 d | edef g2 fe | dBAG DEFG | (3ABA G2 G2 :|
